icons/svg/dice-d6.svg

﻿<?xml version="1.0" encoding="utf-8"?>
<!DOCTYPE svg PUBLIC "-//W3C//DTD SVG 1.1//EN" "http://www.w3.org/Graphics/SVG/1.1/DTD/svg11.dtd">
<svg xmlns="http://www.w3.org/2000/svg" xmlns:xlink="http://www.w3.org/1999/xlink" version="1.1" baseProfile="full" width="24" height="24" viewBox="0 0 24.00 24.00" enable-background="new 0 0 24.00 24.00" xml:space="preserve">
	<path fill="#000000" fill-opacity="0.882353" stroke-width="0.2" stroke-linejoin="round" d="M 5,3L 19,3C 20.1046,3 21,3.89543 21,5L 21,19C 21,20.1046 20.1046,21 19,21L 5,21C 3.89543,21 3,20.1046 3,19L 3,5C 3,3.89543 3.89543,3 5,3 Z M 5,5.00001L 5,19L 19,19L 19,5.00001L 5,5.00001 Z M 13.3932,9.53076C 10.8932,9.49951 10.862,11.5308 10.862,11.5308C 10.862,11.5308 11.4089,10.8745 12.5339,10.8745C 13.1901,10.8745 14.4902,11.4505 14.5495,13.4058C 14.612,15.4683 12.7682,16 12.7682,16C 12.7682,16 9.26823,16.8589 9.29948,12.6558C 9.33456,7.93691 13.3932,8.32764 13.3932,8.32764L 13.3932,9.53076 Z M 11.95,12.1C 11.2057,12 10.8307,12.7808 10.8307,12.7808L 10.85,13.5C 10.85,14.2732 11.3925,14.8276 12,14.8276C 12.6075,14.8276 13.05,14.2732 13.05,13.5C 13.05,12.7268 12.5575,12.1 11.95,12.1 Z "/>
</svg>

<svg xmlns="http://www.w3.org/2000/svg" version="1.1" baseProfile="full" width="24" height="24" viewBox="0 0 24.00 24.00" xml:space="preserve"><path fill="#000" fill-opacity=".882" stroke-width=".2" stroke-linejoin="round" d="M5 3h14c1.105 0 2 .895 2 2v14c0 1.105-.895 2-2 2H5c-1.105 0-2-.895-2-2V5c0-1.105.895-2 2-2zm0 2v14h14V5H5zm8.393 4.53c-2.5-.03-2.53 2-2.53 2s.546-.655 1.67-.655c.657 0 1.957.575 2.017 2.53C14.611 15.47 12.768 16 12.768 16s-3.5.86-3.47-3.344c.037-4.72 4.095-4.328 4.095-4.328V9.53zM11.95 12.1c-.744-.1-1.12.68-1.12.68l.02.72c0 .773.543 1.328 1.15 1.328.607 0 1.05-.555 1.05-1.328s-.493-1.4-1.1-1.4z"/></svg>
